X: 24
T:Rakes of Mallow
M:4/4
L:1/4
N:1st tune in set with Soldiers Joy
R:Reel
N:http://www.lesession.co.uk
Z:Steve Mansfield 1998-2001
K:G
GB GB | GB c/B/A/G/ | FA FA | FA d/c/B/A/ | 
GB GB | GB d>B | c/B/A/G/ F/G/A/c/ | BG G2 :: 
gf/e/ dc | Bc d2 | gf/e/ dc | Bd A2 | 
gf/e/ dc | Bc dB | c/B/A/G/ F/G/A/c/ | BG G2 :|

